icons/star_large_fill.svg

<svg width="48" height="48" viewBox="0 0 48 48" fill="none" xmlns="http://www.w3.org/2000/svg">
<path d="M23.0969 7.06406C23.4663 6.31198 24.5337 6.31198 24.9031 7.06406L29.6852 16.7997C29.8319 17.0984 30.1155 17.3054 30.4435 17.3533L41.1366 18.9145C41.9627 19.0351 42.2925 20.055 41.6948 20.6404L33.9571 28.2186C33.7198 28.4511 33.6115 28.786 33.6675 29.1143L35.4941 39.8148C35.6352 40.6414 34.7717 41.2718 34.0329 40.8815L24.4686 35.8294C24.1753 35.6744 23.8248 35.6744 23.5314 35.8294L13.9671 40.8815C13.2283 41.2718 12.3648 40.6414 12.5059 39.8148L14.3325 29.1143C14.3885 28.786 14.2802 28.4511 14.0429 28.2186L6.30523 20.6404C5.7075 20.055 6.03734 19.0351 6.86337 18.9145L17.5565 17.3533C17.8845 17.3054 18.1681 17.0984 18.3148 16.7997L23.0969 7.06406Z" fill="black"/>
</svg>

<svg
  xmlns="http://www.w3.org/2000/svg"
  width="24"
  height="24"
  viewBox="0 0 24 24"
  fill="none"
  stroke="currentColor"
  stroke-width="2"
  stroke-linecap="round"
  stroke-linejoin="round"
>
  <path d="M23.097 7.064a1.005 1.005 0 0 1 1.806 0l4.782 9.736c.147.298.43.505.759.553l10.693 1.561c.826.121 1.155 1.141.558 1.726l-7.738 7.579a1.01 1.01 0 0 0-.29.895l1.827 10.7c.141.827-.722 1.458-1.461 1.068l-9.564-5.053a1 1 0 0 0-.938 0l-9.564 5.053c-.739.39-1.602-.24-1.461-1.067l1.826-10.7a1.01 1.01 0 0 0-.29-.896L6.306 20.64c-.598-.585-.268-1.605.558-1.726l10.694-1.56c.328-.049.611-.256.758-.554z" />
</svg>
